cypex/img/main/footer__logo.svg

<svg width="99" height="33" viewBox="0 0 99 33" fill="none" xmlns="http://www.w3.org/2000/svg">
<path d="M19.0622 13.863L19.2197 13.3805C19.2197 13.3805 17.8806 12.8981 16.2954 13.3214C18.4123 13.9418 20.2142 15.5565 20.2142 15.5565C19.7219 14.2962 19.0622 13.863 19.0622 13.863Z" fill="white" fill-opacity="0.6"/>
<path d="M21.9963 12.8193V12.1006C21.9963 12.1006 20.8345 10.1609 18.6191 9.30426C17.9692 5.59226 12.9182 5.56273 12.9182 5.56273H17.2209V0.639648H7.38462C3.30831 0.649495 0 3.94796 0 8.02426V25.255C0 29.3313 3.30831 32.6396 7.38462 32.6396H17.2308V27.7166H15.6554C13.8634 27.7166 12.4062 26.4858 12.4062 24.9596C12.4062 23.4335 13.8634 22.2027 15.6554 22.2027C17.4474 22.2027 18.9046 23.4335 18.9046 24.9596C18.9046 25.3929 18.7766 25.8064 18.5698 26.1806C24.5563 25.5504 24.1526 20.4698 24.1526 20.4698C24.1526 20.4698 25.7378 19.495 25.1175 17.9098C25.1175 17.9 26.9982 15.5566 21.9963 12.8193ZM20.7754 24.0341C20.7754 24.0341 22.1538 22.3406 19.3477 22.0255C19.7022 21.7006 19.7908 21.2575 19.7908 21.2575C19.7908 21.2575 21.9668 21.8286 22.8726 21.0212C22.8037 23.02 20.7754 24.0341 20.7754 24.0341ZM24.192 16.7873C22.8037 16.0981 21.8782 17.1418 21.8782 17.1418C25.8166 17.004 23.424 21.5923 19.7218 19.8593C21.0314 19.9578 21.7206 18.9633 21.7206 18.9633C21.7206 18.9633 17.3785 19.6526 18.7865 16.4821C16.8172 17.1418 16.5317 19.5147 16.5317 19.5147C16.5317 19.5147 11.1557 19.9184 13.2037 15.3006C10.5157 17.9886 12.7902 21.4347 12.7902 21.4347C12.7902 21.4347 10.9095 20.7652 10.4271 18.4218C10.4271 18.4218 8.69415 24.9498 11.8745 29.7843C4.06646 21.415 10.0431 14.3553 10.0431 14.3553C4.28308 18.6089 7.10892 27.0963 7.10892 27.0963C2.16615 21.0212 5.01169 16.5313 5.01169 16.5313C5.01169 16.5313 2.45169 18.2643 2.92431 23.2366C2.92431 23.2366 -1.67385 11.6476 9.43262 11.1849C7.02031 9.25503 2.49108 10.4464 2.49108 10.4464C2.49108 10.4464 7.71938 6.49811 13.4105 9.30426C13.0658 7.2858 10.4172 6.96088 10.4172 6.96088C10.4172 6.96088 16.6695 5.53319 17.5754 10.2101C17.5754 10.2101 19.584 10.9584 20.7458 12.524V13.6169C20.7458 13.6169 24.7237 15.3498 24.192 16.7873Z" fill="white" fill-opacity="0.6"/>
<path d="M51.7121 0.649414H40.6351L41.8659 1.25988V32.6396H46.789V19.7214L45.5582 19.111H51.7121C55.7884 19.111 59.0967 15.8026 59.0967 11.7263V8.03403C59.0967 3.95772 55.7884 0.649414 51.7121 0.649414ZM54.1736 11.7263C54.1736 13.0851 53.0708 14.1879 51.7121 14.1879H46.789V6.1928L45.5582 5.58234H51.7121C53.0708 5.58234 54.1736 6.68511 54.1736 8.04388V11.7263Z" fill="white" fill-opacity="0.6"/>
<path d="M61.5582 1.26972V32.6396H78.7791V27.7165H66.4714V19.7214L65.2406 19.111H76.3175V14.1879H66.4714V6.1928L65.2406 5.57249H78.7791V0.649414H60.3274L61.5582 1.26972Z" fill="white" fill-opacity="0.6"/>
<path d="M98.4616 0.649414H93.2037L89.8462 9.61926L86.4887 0.649414H80.0099L81.5262 1.40757L87.2271 16.6494L81.2407 32.6396H86.4887L89.8462 23.6697L93.2037 32.6396H98.4616L92.4751 16.6494L98.4616 0.649414Z" fill="white" fill-opacity="0.6"/>
<path d="M31.3896 11.5492L27.4216 0.639648L20.9526 0.649495L22.4591 1.40765L28.9083 19.111H29.3711L25.7477 32.6298H30.8382L39.4043 0.649495H34.3139L31.3896 11.5492Z" fill="white" fill-opacity="0.6"/>
</svg>

<svg width="99" height="33" fill="none" xmlns="http://www.w3.org/2000/svg"><path d="m19.062 13.863.158-.482s-1.34-.483-2.925-.06c2.117.62 3.92 2.236 3.92 2.236-.493-1.26-1.153-1.694-1.153-1.694Z" fill="#fff" fill-opacity=".6"/><path d="M21.996 12.82v-.72s-1.162-1.94-3.377-2.796c-.65-3.712-5.7-3.741-5.7-3.741h4.302V.64H7.385C3.308.65 0 3.948 0 8.024v17.231a7.387 7.387 0 0 0 7.385 7.385h9.846v-4.923h-1.576c-1.792 0-3.249-1.231-3.249-2.757 0-1.527 1.457-2.757 3.25-2.757 1.791 0 3.249 1.23 3.249 2.757 0 .433-.128.846-.335 1.22 5.986-.63 5.583-5.71 5.583-5.71s1.585-.975.965-2.56c0-.01 1.88-2.353-3.122-5.09Zm-1.22 11.214s1.378-1.693-1.428-2.008c.354-.325.443-.768.443-.768s2.176.57 3.082-.237c-.07 1.999-2.098 3.013-2.098 3.013Zm3.416-7.247a1.937 1.937 0 0 0-2.314.355c3.939-.138 1.546 4.45-2.156 2.717 1.31.099 1.999-.896 1.999-.896s-4.343.69-2.934-2.48c-1.97.659-2.255 3.032-2.255 3.032s-5.376.403-3.328-4.214c-2.688 2.688-.414 6.134-.414 6.134s-1.88-.67-2.363-3.013c0 0-1.733 6.528 1.447 11.362-7.808-8.369-1.83-15.429-1.83-15.429-5.76 4.254-2.935 12.741-2.935 12.741-4.943-6.075-2.097-10.565-2.097-10.565s-2.56 1.733-2.088 6.706c0 0-4.598-11.59 6.509-12.052-2.413-1.93-6.942-.739-6.942-.739s5.228-3.948 10.92-1.142c-.345-2.018-2.994-2.343-2.994-2.343s6.252-1.428 7.158 3.25c0 0 2.009.747 3.17 2.313v1.093s3.979 1.733 3.447 3.17ZM51.712.65H40.635l1.23.61v31.38h4.924V19.72l-1.23-.61h6.153a7.387 7.387 0 0 0 7.385-7.385V8.034A7.387 7.387 0 0 0 51.712.649Zm2.462 11.076a2.462 2.462 0 0 1-2.462 2.462H46.79V6.193l-1.23-.61h6.153a2.462 2.462 0 0 1 2.462 2.46v3.683ZM61.558 1.27v31.37H78.78v-4.924H66.471v-7.995l-1.23-.61h11.076v-4.923h-9.846V6.193l-1.23-.62h13.538V.648H60.327l1.231.62ZM98.462.65h-5.258l-3.358 8.97L86.49.65h-6.48l1.517.758 5.701 15.241-5.986 15.99h5.248l3.357-8.97 3.358 8.97h5.258l-5.987-15.99 5.987-16Z" fill="#fff" fill-opacity=".6"/><path d="M31.39 11.55 27.422.64l-6.47.01 1.507.758 6.45 17.703h.462L25.748 32.63h5.09L39.404.65h-5.09l-2.924 10.9Z" fill="#fff" fill-opacity=".6"/></svg>
